actions/22x22-light/media-repeat-playlist-amarok.svg

<svg viewBox="0 0 22 22" xmlns="http://www.w3.org/2000/svg"><path d="m4.5 3c-.8284213 0-1.4999917.6715704-1.5 1.5.0000083.8284296.6715787 1.5 1.5 1.5s1.4999917-.6715704 1.5-1.5c-.0000083-.8284296-.6715787-1.5-1.5-1.5zm2.5 1v1h1v-1zm2 0v1h10v-1zm0 2v1h3v-1zm-4.5 3c-.8284268-.0000012-1.5.6715721-1.5 1.5 0 .828428.6715732 1.500001 1.5 1.5.8284268.000001 1.5-.671572 1.5-1.5 0-.8284279-.6715732-1.5000012-1.5-1.5zm2.5 1v1h1v-1zm2 0v1h10v-1zm3 2-2 1.5 2 1.5v-1h5c .554 0 1 .446 1 1h1c0-1.10801-.89199-2-2-2h-5zm-7.5 3c-.8284268-.000001-1.5.671572-1.5 1.5s.6715732 1.500001 1.5 1.5c.8284268.000001 1.5-.671572 1.5-1.5s-.6715732-1.500001-1.5-1.5zm2.5 1v1h1v-1zm3 0c0 1.10801.89199 2 2 2h5v1l2-1.5-2-1.5v1h-5c-.554 0-1-.446-1-1z" fill="#4d4d4d"/></svg>

<svg xmlns="http://www.w3.org/2000/svg" viewBox="0 0 22 22">
  <defs id="defs3051">
    <style type="text/css" id="current-color-scheme">
      .ColorScheme-Text {
        color:#4d4d4d;
      }
      </style>
  </defs>
 <path 
    style="fill:currentColor;fill-opacity:1;stroke:none" 
    d="M 4.5 3 C 3.6715787 3 3.0000083 3.6715704 3 4.5 C 3.0000083 5.3284296 3.6715787 6 4.5 6 C 5.3284213 6 5.9999917 5.3284296 6 4.5 C 5.9999917 3.6715704 5.3284213 3 4.5 3 z M 7 4 L 7 5 L 8 5 L 8 4 L 7 4 z M 9 4 L 9 5 L 19 5 L 19 4 L 9 4 z M 9 6 L 9 7 L 12 7 L 12 6 L 9 6 z M 4.5 9 C 3.6715732 8.9999988 3 9.6715721 3 10.5 C 3 11.328428 3.6715732 12.000001 4.5 12 C 5.3284268 12.000001 6 11.328428 6 10.5 C 6 9.6715721 5.3284268 8.9999988 4.5 9 z M 7 10 L 7 11 L 8 11 L 8 10 L 7 10 z M 9 10 L 9 11 L 19 11 L 19 10 L 9 10 z M 12 12 L 10 13.5 L 12 15 L 12 14 L 17 14 C 17.554 14 18 14.446 18 15 L 19 15 C 19 13.89199 18.10801 13 17 13 L 12 13 L 12 12 z M 4.5 15 C 3.6715732 14.999999 3 15.671572 3 16.5 C 3 17.328428 3.6715732 18.000001 4.5 18 C 5.3284268 18.000001 6 17.328428 6 16.5 C 6 15.671572 5.3284268 14.999999 4.5 15 z M 7 16 L 7 17 L 8 17 L 8 16 L 7 16 z M 10 16 C 10 17.10801 10.89199 18 12 18 L 17 18 L 17 19 L 19 17.5 L 17 16 L 17 17 L 12 17 C 11.446 17 11 16.554 11 16 L 10 16 z "
    class="ColorScheme-Text"
    />  
</svg>
